Newaita-dark/apps/16/preferences-desktop-cursors.svg

<svg height="16" viewBox="0 0 16 16" width="16" xmlns="http://www.w3.org/2000/svg" xmlns:xlink="http://www.w3.org/1999/xlink"><linearGradient id="a" gradientUnits="userSpaceOnUse" x1="7.93826" x2="7.93826" y1="14.0169675" y2="14.67848950002"><stop offset="0" stop-opacity=".27451"/><stop offset="1" stop-opacity="0"/></linearGradient><linearGradient id="b"><stop offset="0" stop-opacity=".313726"/><stop offset=".222222" stop-opacity=".27451"/><stop offset="1" stop-opacity="0"/></linearGradient><radialGradient id="c" cx="450.908936" cy="189.579361" gradientTransform="matrix(.00000009 -.0390662 -.0703192 -.00000005 26.726846 31.797665)" gradientUnits="userSpaceOnUse" r="21.166656" xlink:href="#b"/><radialGradient id="d" cx="450.908936" cy="189.579361" gradientTransform="matrix(-.00000009 .0390662 .0703192 .00000005 -10.850331 -3.76374)" gradientUnits="userSpaceOnUse" r="21.166656" xlink:href="#b"/><radialGradient id="e" cx="450.908936" cy="189.579361" gradientTransform="matrix(-.00000009 -.0390662 .0703192 -.00000005 -10.850331 31.797665)" gradientUnits="userSpaceOnUse" r="21.166656" xlink:href="#b"/><radialGradient id="f" cx="450.908936" cy="189.579361" gradientTransform="matrix(.00000009 .0390662 -.0703192 .00000005 26.726845 -3.763741)" gradientUnits="userSpaceOnUse" r="21.166656" xlink:href="#b"/><linearGradient id="g"><stop offset="0" stop-color="#bdbdbd"/><stop offset="1" stop-color="#e0e0e0"/></linearGradient><linearGradient id="h" gradientTransform="matrix(.0376748 0 0 .108706 -2.927007 16.820674)" gradientUnits="userSpaceOnUse" x1="306.916656" x2="305.954559" xlink:href="#g" y1="-25.791676" y2="-135.329163"/><linearGradient id="i" gradientTransform="matrix(.0376748 0 0 .108706 -2.927006 16.820673)" gradientUnits="userSpaceOnUse" x1="306.916656" x2="305.954559" xlink:href="#g" y1="-25.791676" y2="-135.329163"/><linearGradient id="j" gradientUnits="userSpaceOnUse" x1="7.938262" x2="7.938262" y1="14.0169675" y2="2.1095745"><stop offset="0" stop-color="#424242"/><stop offset="1" stop-color="#616161"/></linearGradient><path d="m2.316406 14.015625h11.246094v.664063h-11.246094zm0 0" fill="url(#a)"/><path d="m13.5625 14.015625h1.320312v-.660156h-1.320312zm0 0" fill="url(#c)"/><path d="m2.316406 14.015625h-1.324218v.664063h1.324218zm0 0" fill="url(#d)"/><path d="m2.316406 14.015625h-1.324218v-.660156h1.324218zm0 0" fill="url(#e)"/><path d="m13.5625 14.015625h1.320312v.664063h-1.320312zm0 0" fill="url(#f)"/><path d="m1.652344 2.109375h12.570312c.367188 0 .660156.296875.660156.660156v10.585938c0 .367187-.292968.660156-.660156.660156h-12.570312c-.363282 0-.660156-.292969-.660156-.660156v-10.585938c0-.363281.296874-.660156.660156-.660156zm0 0" fill="url(#h)"/><path d="m7.9375 2.109375v11.90625h6.285156c.367188 0 .660156-.292969.660156-.660156v-10.585938c0-.363281-.292968-.660156-.660156-.660156zm0 0" fill="url(#i)"/><path d="m1.652344 14.023438c-.363282 0-.660156-.296876-.660156-.660157v-.171875c0 .363282.296874.660156.660156.660156h12.570312c.367188 0 .660156-.296874.660156-.660156v.171875c0 .363281-.292968.660157-.660156.660157zm0 0" fill-opacity=".235294"/><path d="m1.652344 2.148438c-.363282 0-.660156.292968-.660156.660156v.171875c0-.367188.296874-.660157.660156-.660157h12.570312c.367188 0 .660156.292969.660156.660157v-.171875c0-.367188-.292968-.660156-.660156-.660156zm0 0" fill="#fff" fill-opacity=".392157"/><path d="m1.652344 2.0625c-.390625 0-.707032.316406-.707032.707031v10.585938c0 .390625.316407.707031.707032.707031h12.570312c.390625 0 .707032-.316406.707032-.707031v-10.585938c0-.390625-.316407-.707031-.707032-.707031zm0 .09375h12.570312c.339844 0 .613282.273438.613282.613281v10.585938c0 .339843-.273438.613281-.613282.613281h-12.570312c-.339844 0-.613282-.273438-.613282-.613281v-10.585938c0-.339843.273438-.613281.613282-.613281zm0 0" fill="#212121"/><path d="m1.652344 2.148438c-.363282 0-.660156.292968-.660156.660156v.171875c0-.367188.296874-.660157.660156-.660157h6.285156v-.171874zm0 0" fill="#fff" fill-opacity=".588235"/><path d="m4.628906 4.730469c-.171875.160156-.21875.410156-.117187.625l2.855469 5.898437c.101562.203125.316406.324219.542968.300782.226563-.027344.410156-.191407.460938-.414063l.496094-2.148437 2.148437-.496094c.222656-.050782.386719-.234375.414063-.460938.023437-.226562-.097657-.441406-.300782-.542968l-5.898437-2.855469c-.199219-.09375-.4375-.058594-.601563.09375zm0 0" fill="url(#j)"/><path d="m4.996094 4.535156c-.132813 0-.265625.050782-.367188.144532-.132812.125-.191406.3125-.160156.488281.019531-.113281.074219-.214844.160156-.296875.164063-.152344.402344-.1875.601563-.089844l5.898437 2.855469c.15625.074219.261719.21875.292969.386719.003906-.011719.003906-.027344.007813-.039063.023437-.226563-.097657-.441406-.300782-.539063l-5.898437-2.855468c-.074219-.039063-.15625-.054688-.234375-.054688zm0 0" fill="#fff" fill-opacity=".235294"/><path d="m4.472656 5.234375c-.023437.113281-.011718.238281.039063.347656l2.855469 5.898438c.101562.207031.316406.324219.542968.300781.226563-.027344.410156-.191406.460938-.414062l.496094-2.144532 2.148437-.496094c.222656-.050781.386719-.238281.414063-.464843.003906-.058594 0-.117188-.011719-.171875-.042969.199218-.199219.359375-.402344.40625l-2.148437.496094-.496094 2.148437c-.050782.222656-.234375.386719-.460938.414063-.226562.023437-.441406-.097657-.542968-.300782l-2.855469-5.898437c-.015625-.039063-.03125-.082031-.039063-.121094zm0 0" fill-opacity=".235294"/><path d="m148.110856-63.639454c-5.499475 5.12451-6.999331 13.123747-3.749642 19.99809l91.366275 188.731977c3.24969 6.499379 10.124033 10.374009 17.373341 9.624081 7.249308-.874916 13.123747-6.124415 14.748592-13.248735l15.873484-68.743435 68.743435-15.873484c7.12432-1.624845 12.373819-7.499284 13.248735-14.748592.749928-7.249308-3.124702-14.123651-9.624081-17.373341l-188.731977-91.366275c-6.374391-2.999713-13.998663-1.874821-19.248162 2.999714zm0 0" fill="none" stroke="#212121" stroke-linecap="round" stroke-linejoin="round" stroke-width="3" transform="matrix(.031253 0 0 .031253 0 6.719392)"/></svg>

<?xml version="1.0" encoding="UTF-8"?>
<svg xmlns="http://www.w3.org/2000/svg" xmlns:xlink="http://www.w3.org/1999/xlink" width="16px" height="16px" viewBox="0 0 16 16" version="1.1">
<defs>
<linearGradient id="linear0" gradientUnits="userSpaceOnUse" x1="254" y1="233.5" x2="254" y2="254.666672" gradientTransform="matrix(0.031253,0,0,0.031253,-0.00000190753,6.719392)">
<stop offset="0" style="stop-color:rgb(0%,0%,0%);stop-opacity:0.27451;"/>
<stop offset="1" style="stop-color:rgb(0%,0%,0%);stop-opacity:0;"/>
</linearGradient>
<radialGradient id="radial0" gradientUnits="userSpaceOnUse" cx="450.908936" cy="189.579361" fx="450.908936" fy="189.579361" r="21.166656" gradientTransform="matrix(0.0000000870852,-0.0390662,-0.0703192,-0.0000000507693,26.726846,31.797665)">
<stop offset="0" style="stop-color:rgb(0%,0%,0%);stop-opacity:0.313726;"/>
<stop offset="0.222222" style="stop-color:rgb(0%,0%,0%);stop-opacity:0.27451;"/>
<stop offset="1" style="stop-color:rgb(0%,0%,0%);stop-opacity:0;"/>
</radialGradient>
<radialGradient id="radial1" gradientUnits="userSpaceOnUse" cx="450.908936" cy="189.579361" fx="450.908936" fy="189.579361" r="21.166656" gradientTransform="matrix(-0.0000000870852,0.0390662,0.0703192,0.0000000507693,-10.850331,-3.76374)">
<stop offset="0" style="stop-color:rgb(0%,0%,0%);stop-opacity:0.313726;"/>
<stop offset="0.222222" style="stop-color:rgb(0%,0%,0%);stop-opacity:0.27451;"/>
<stop offset="1" style="stop-color:rgb(0%,0%,0%);stop-opacity:0;"/>
</radialGradient>
<radialGradient id="radial2" gradientUnits="userSpaceOnUse" cx="450.908936" cy="189.579361" fx="450.908936" fy="189.579361" r="21.166656" gradientTransform="matrix(-0.0000000870852,-0.0390662,0.0703192,-0.0000000507693,-10.850331,31.797665)">
<stop offset="0" style="stop-color:rgb(0%,0%,0%);stop-opacity:0.313726;"/>
<stop offset="0.222222" style="stop-color:rgb(0%,0%,0%);stop-opacity:0.27451;"/>
<stop offset="1" style="stop-color:rgb(0%,0%,0%);stop-opacity:0;"/>
</radialGradient>
<radialGradient id="radial3" gradientUnits="userSpaceOnUse" cx="450.908936" cy="189.579361" fx="450.908936" fy="189.579361" r="21.166656" gradientTransform="matrix(0.0000000870852,0.0390662,-0.0703192,0.0000000507693,26.726845,-3.763741)">
<stop offset="0" style="stop-color:rgb(0%,0%,0%);stop-opacity:0.313726;"/>
<stop offset="0.222222" style="stop-color:rgb(0%,0%,0%);stop-opacity:0.27451;"/>
<stop offset="1" style="stop-color:rgb(0%,0%,0%);stop-opacity:0;"/>
</radialGradient>
<linearGradient id="linear1" gradientUnits="userSpaceOnUse" x1="306.916656" y1="-25.791676" x2="305.954559" y2="-135.329163" gradientTransform="matrix(0.0376748,0,0,0.108706,-2.927007,16.820674)">
<stop offset="0" style="stop-color:rgb(74.117649%,74.117649%,74.117649%);stop-opacity:1;"/>
<stop offset="1" style="stop-color:rgb(87.843138%,87.843138%,87.843138%);stop-opacity:1;"/>
</linearGradient>
<linearGradient id="linear2" gradientUnits="userSpaceOnUse" x1="306.916656" y1="-25.791676" x2="305.954559" y2="-135.329163" gradientTransform="matrix(0.0376748,0,0,0.108706,-2.927006,16.820673)">
<stop offset="0" style="stop-color:rgb(74.117649%,74.117649%,74.117649%);stop-opacity:1;"/>
<stop offset="1" style="stop-color:rgb(87.843138%,87.843138%,87.843138%);stop-opacity:1;"/>
</linearGradient>
<linearGradient id="linear3" gradientUnits="userSpaceOnUse" x1="254" y1="233.5" x2="254" y2="-147.5" gradientTransform="matrix(0.031253,0,0,0.031253,0,6.719392)">
<stop offset="0" style="stop-color:rgb(25.882354%,25.882354%,25.882354%);stop-opacity:1;"/>
<stop offset="1" style="stop-color:rgb(38.039216%,38.039216%,38.039216%);stop-opacity:1;"/>
</linearGradient>
</defs>
<g id="surface1">
<path style=" stroke:none;fill-rule:nonzero;fill:url(#linear0);" d="M 2.316406 14.015625 L 13.5625 14.015625 L 13.5625 14.679688 L 2.316406 14.679688 Z M 2.316406 14.015625 "/>
<path style=" stroke:none;fill-rule:nonzero;fill:url(#radial0);" d="M 13.5625 14.015625 L 14.882812 14.015625 L 14.882812 13.355469 L 13.5625 13.355469 Z M 13.5625 14.015625 "/>
<path style=" stroke:none;fill-rule:nonzero;fill:url(#radial1);" d="M 2.316406 14.015625 L 0.992188 14.015625 L 0.992188 14.679688 L 2.316406 14.679688 Z M 2.316406 14.015625 "/>
<path style=" stroke:none;fill-rule:nonzero;fill:url(#radial2);" d="M 2.316406 14.015625 L 0.992188 14.015625 L 0.992188 13.355469 L 2.316406 13.355469 Z M 2.316406 14.015625 "/>
<path style=" stroke:none;fill-rule:nonzero;fill:url(#radial3);" d="M 13.5625 14.015625 L 14.882812 14.015625 L 14.882812 14.679688 L 13.5625 14.679688 Z M 13.5625 14.015625 "/>
<path style=" stroke:none;fill-rule:nonzero;fill:url(#linear1);" d="M 1.652344 2.109375 L 14.222656 2.109375 C 14.589844 2.109375 14.882812 2.40625 14.882812 2.769531 L 14.882812 13.355469 C 14.882812 13.722656 14.589844 14.015625 14.222656 14.015625 L 1.652344 14.015625 C 1.289062 14.015625 0.992188 13.722656 0.992188 13.355469 L 0.992188 2.769531 C 0.992188 2.40625 1.289062 2.109375 1.652344 2.109375 Z M 1.652344 2.109375 "/>
<path style=" stroke:none;fill-rule:nonzero;fill:url(#linear2);" d="M 7.9375 2.109375 L 7.9375 14.015625 L 14.222656 14.015625 C 14.589844 14.015625 14.882812 13.722656 14.882812 13.355469 L 14.882812 2.769531 C 14.882812 2.40625 14.589844 2.109375 14.222656 2.109375 Z M 7.9375 2.109375 "/>
<path style=" stroke:none;fill-rule:nonzero;fill:rgb(0%,0%,0%);fill-opacity:0.235294;" d="M 1.652344 14.023438 C 1.289062 14.023438 0.992188 13.726562 0.992188 13.363281 L 0.992188 13.191406 C 0.992188 13.554688 1.289062 13.851562 1.652344 13.851562 L 14.222656 13.851562 C 14.589844 13.851562 14.882812 13.554688 14.882812 13.191406 L 14.882812 13.363281 C 14.882812 13.726562 14.589844 14.023438 14.222656 14.023438 Z M 1.652344 14.023438 "/>
<path style=" stroke:none;fill-rule:nonzero;fill:rgb(100%,100%,100%);fill-opacity:0.392157;" d="M 1.652344 2.148438 C 1.289062 2.148438 0.992188 2.441406 0.992188 2.808594 L 0.992188 2.980469 C 0.992188 2.613281 1.289062 2.320312 1.652344 2.320312 L 14.222656 2.320312 C 14.589844 2.320312 14.882812 2.613281 14.882812 2.980469 L 14.882812 2.808594 C 14.882812 2.441406 14.589844 2.148438 14.222656 2.148438 Z M 1.652344 2.148438 "/>
<path style=" stroke:none;fill-rule:nonzero;fill:rgb(12.941177%,12.941177%,12.941177%);fill-opacity:1;" d="M 1.652344 2.0625 C 1.261719 2.0625 0.945312 2.378906 0.945312 2.769531 L 0.945312 13.355469 C 0.945312 13.746094 1.261719 14.0625 1.652344 14.0625 L 14.222656 14.0625 C 14.613281 14.0625 14.929688 13.746094 14.929688 13.355469 L 14.929688 2.769531 C 14.929688 2.378906 14.613281 2.0625 14.222656 2.0625 Z M 1.652344 2.15625 L 14.222656 2.15625 C 14.5625 2.15625 14.835938 2.429688 14.835938 2.769531 L 14.835938 13.355469 C 14.835938 13.695312 14.5625 13.96875 14.222656 13.96875 L 1.652344 13.96875 C 1.3125 13.96875 1.039062 13.695312 1.039062 13.355469 L 1.039062 2.769531 C 1.039062 2.429688 1.3125 2.15625 1.652344 2.15625 Z M 1.652344 2.15625 "/>
<path style=" stroke:none;fill-rule:nonzero;fill:rgb(100%,100%,100%);fill-opacity:0.588235;" d="M 1.652344 2.148438 C 1.289062 2.148438 0.992188 2.441406 0.992188 2.808594 L 0.992188 2.980469 C 0.992188 2.613281 1.289062 2.320312 1.652344 2.320312 L 7.9375 2.320312 L 7.9375 2.148438 Z M 1.652344 2.148438 "/>
<path style=" stroke:none;fill-rule:nonzero;fill:url(#linear3);" d="M 4.628906 4.730469 C 4.457031 4.890625 4.410156 5.140625 4.511719 5.355469 L 7.367188 11.253906 C 7.46875 11.457031 7.683594 11.578125 7.910156 11.554688 C 8.136719 11.527344 8.320312 11.363281 8.371094 11.140625 L 8.867188 8.992188 L 11.015625 8.496094 C 11.238281 8.445312 11.402344 8.261719 11.429688 8.035156 C 11.453125 7.808594 11.332031 7.59375 11.128906 7.492188 L 5.230469 4.636719 C 5.03125 4.542969 4.792969 4.578125 4.628906 4.730469 Z M 4.628906 4.730469 "/>
<path style=" stroke:none;fill-rule:nonzero;fill:rgb(100%,100%,100%);fill-opacity:0.235294;" d="M 4.996094 4.535156 C 4.863281 4.535156 4.730469 4.585938 4.628906 4.679688 C 4.496094 4.804688 4.4375 4.992188 4.46875 5.167969 C 4.488281 5.054688 4.542969 4.953125 4.628906 4.871094 C 4.792969 4.71875 5.03125 4.683594 5.230469 4.78125 L 11.128906 7.636719 C 11.285156 7.710938 11.390625 7.855469 11.421875 8.023438 C 11.425781 8.011719 11.425781 7.996094 11.429688 7.984375 C 11.453125 7.757812 11.332031 7.542969 11.128906 7.445312 L 5.230469 4.589844 C 5.15625 4.550781 5.074219 4.535156 4.996094 4.535156 Z M 4.996094 4.535156 "/>
<path style=" stroke:none;fill-rule:nonzero;fill:rgb(0%,0%,0%);fill-opacity:0.235294;" d="M 4.472656 5.234375 C 4.449219 5.347656 4.460938 5.472656 4.511719 5.582031 L 7.367188 11.480469 C 7.46875 11.6875 7.683594 11.804688 7.910156 11.78125 C 8.136719 11.753906 8.320312 11.589844 8.371094 11.367188 L 8.867188 9.222656 L 11.015625 8.726562 C 11.238281 8.675781 11.402344 8.488281 11.429688 8.261719 C 11.433594 8.203125 11.429688 8.144531 11.417969 8.089844 C 11.375 8.289062 11.21875 8.449219 11.015625 8.496094 L 8.867188 8.992188 L 8.371094 11.140625 C 8.320312 11.363281 8.136719 11.527344 7.910156 11.554688 C 7.683594 11.578125 7.46875 11.457031 7.367188 11.253906 L 4.511719 5.355469 C 4.496094 5.316406 4.480469 5.273438 4.472656 5.234375 Z M 4.472656 5.234375 "/>
<path style="fill:none;stroke-width:3;stroke-linecap:round;stroke-linejoin:round;stroke:rgb(12.941177%,12.941177%,12.941177%);stroke-opacity:1;stroke-miterlimit:4;" d="M 148.110856 -63.639454 C 142.611381 -58.514944 141.111525 -50.515707 144.361214 -43.641364 L 235.727489 145.090613 C 238.977179 151.589992 245.851522 155.464622 253.10083 154.714694 C 260.350138 153.839778 266.224577 148.590279 267.849422 141.465959 L 283.722906 72.722524 L 352.466341 56.84904 C 359.590661 55.224195 364.84016 49.349756 365.715076 42.100448 C 366.465004 34.85114 362.590374 27.976797 356.090995 24.727107 L 167.359018 -66.639168 C 160.984627 -69.638881 153.360355 -68.513989 148.110856 -63.639454 Z M 148.110856 -63.639454 " transform="matrix(0.031253,0,0,0.031253,0,6.719392)"/>
</g>
</svg>
